X: 1
T: the Old Gray Cat
T: the Auld Grey Cat
R: reel
O: Kerr c.1880
B: Kerr's Merry Melodies, v.1p.28 c.1880
B: Roaring Jelly Coll.
Z: John Chambers <jc:trillian.mit.edu>
M: C|
L: 1/8
K: Edor
|:\
"Em"{^d}e2e2 E3F | GFGA BABc |\
[1,3 "D"{^c}d2d2 D3E | FAdB AFED :|\
[2,4 "D"{^c}dcBA "B7"BAGF | "Em"G2E2 E4 :|
|:\
"Em"B2e2 e3d  | Bdef gfed | "D"A2d2 d3B | ABde fedf |\
"Em"e2B2 "D"g2B2 | "C"a2B2 "B7"b3a | "Am"gfed "B7"BAB^d | "Em"e4 e4 :|
